dist/img/header/favorites.svg

<svg width="36" height="34" viewBox="0 0 36 34" fill="none" xmlns="http://www.w3.org/2000/svg">
<path d="M33.1328 4.06671C31.37 2.02517 28.9245 0.900879 26.2469 0.900879C22.481 0.900879 20.0968 3.19649 18.7599 5.12232C18.413 5.62205 18.118 6.12314 17.8702 6.59466C17.6225 6.12314 17.3275 5.62205 16.9806 5.12232C15.6437 3.19649 13.2594 0.900879 9.49356 0.900879C6.81596 0.900879 4.37046 2.02524 2.60759 4.06678C0.926111 6.01427 0 8.62252 0 11.411C0 14.4464 1.16108 17.2696 3.65398 20.2956C5.88196 23.0002 9.08723 25.788 12.7989 29.0162C14.1819 30.2191 15.6122 31.4631 17.1348 32.8229L17.1806 32.8638C17.378 33.0402 17.6241 33.1283 17.8702 33.1283C18.1164 33.1283 18.3625 33.0401 18.5599 32.8638L18.6056 32.8229C20.1283 31.4631 21.5586 30.2192 22.9418 29.016C26.6533 25.7881 29.8585 23.0003 32.0865 20.2956C34.5794 17.2695 35.7405 14.4464 35.7405 11.411C35.7405 8.62252 34.8144 6.01427 33.1328 4.06671ZM21.5834 27.3893C20.3911 28.4262 19.1641 29.4935 17.8702 30.6415C16.5765 29.4936 15.3493 28.4263 14.1569 27.3892C6.89296 21.0714 2.09417 16.8976 2.09417 11.411C2.09417 9.1432 2.83446 7.03682 4.1787 5.47999C5.53838 3.90548 7.42585 3.03832 9.49356 3.03832C12.3646 3.03832 14.2205 4.8436 15.2718 6.35805C16.2148 7.71632 16.7069 9.08556 16.8747 9.61116C17.0151 10.0511 17.4169 10.3489 17.8702 10.3489C18.3236 10.3489 18.7254 10.0511 18.8658 9.61116C19.0336 9.08556 19.5257 7.71632 20.4687 6.35797C21.52 4.8436 23.3759 3.03832 26.2469 3.03832C28.3146 3.03832 30.2021 3.90548 31.5617 5.47999C32.906 7.03682 33.6463 9.1432 33.6463 11.411C33.6463 16.8976 28.8475 21.0714 21.5834 27.3893Z" fill="#333333"/>
</svg>

<svg width="36" height="34" fill="none" xmlns="http://www.w3.org/2000/svg"><path d="M33.133 4.067C31.37 2.025 28.924.9 26.247.9c-3.766 0-6.15 2.295-7.487 4.221-.347.5-.642 1.001-.89 1.473a14.026 14.026 0 00-.89-1.473C15.645 3.196 13.26.901 9.495.901 6.816.9 4.37 2.025 2.608 4.067.926 6.014 0 8.623 0 11.41c0 3.035 1.161 5.859 3.654 8.885 2.228 2.704 5.433 5.492 9.145 8.72a433.035 433.035 0 014.336 3.807l.046.04a1.032 1.032 0 001.379 0l.046-.04c1.522-1.36 2.953-2.604 4.336-3.807 3.711-3.228 6.916-6.016 9.145-8.72 2.492-3.026 3.653-5.85 3.653-8.885 0-2.788-.926-5.397-2.607-7.344zm-11.55 23.322a487.962 487.962 0 00-3.713 3.253 479.451 479.451 0 00-3.713-3.253C6.893 21.071 2.094 16.898 2.094 11.411c0-2.268.74-4.374 2.085-5.931 1.36-1.575 3.247-2.442 5.315-2.442 2.87 0 4.726 1.806 5.778 3.32a12.78 12.78 0 011.603 3.253c.14.44.542.738.995.738.454 0 .855-.298.996-.738.168-.525.66-1.895 1.603-3.253 1.051-1.514 2.907-3.32 5.778-3.32 2.068 0 3.955.867 5.315 2.442 1.344 1.557 2.084 3.663 2.084 5.931 0 5.487-4.799 9.66-12.063 15.978z" fill="#333"/></svg>
